X:1
T:Psalm 137
T:Psalm 137
T:William Parsons (ca.1515-ca.1563)
C:William Parsons
C:(ca.1515-ca.1563)
%%score [ 1 2 3 4 ]
L:1/8
Q:1/4=120
M:2/2
K:F
V:1 treble nm="Soprano" snm="S"
V:2 treble nm="Alto" snm="A"
V:3 treble-8 nm="Tenor" snm="T"
V:4 bass nm="Bass" snm="B"
V:1
 F4 E2 D2 | C4 F4 | A4 G4 | F4 z4 | F4 G2 A2 | B4 G4 | A4 z4 | A4 G2 F2 | E4 F4 | D2 D2 C4 | %10
w: When as we|sat in|Ba- by-|lon,|the ry- vers|round a-|bout,|and we re-|mem- brance|of Si- on,|
[M:2/4] z4 |[M:2/2] C2 F4 G2 | A4 G4 | E4 z4 | C2 F4 G2 |[M:2/4] A4 |[M:2/2] F2 B4 B2 | A4 z4 | %18
w: |the teares for|grief burst|out,|we hanged our|harpes|and in- stru-|ments,|
 F4 D2 E2 | F4 G4 | F4 z4 | F4 A2 B2 |[M:2/4] c4 |[M:2/2] c2 d4 d2 | c4 z4 | A4 G2 A2 | B4 G4 | %27
w: the wil- low|trees up-|on,|for in that|place|men for their|use,|had plan- ted|a- ny|
 F8 |] %28
w: one.|
V:2
 C4 C2 A,2 | A,4 A,4 | D4 D4 | D4 z4 | D4 E2 F2 | D4 E4 | F4 z4 | F4 E2 D2 | C4 A,4 | B,2 B,2 A,4 | %10
w: When as we|sat in|Ba- by-|lon,|the ry- vers|round a-|bout,|and we re-|mem- brance|of Si- on,|
[M:2/4] z4 |[M:2/2] A,2 D4 E2 | F4 E4 | C4 z4 | A,2 D4 E2 |[M:2/4] F4 |[M:2/2] F2 G4 G2 | F4 z4 | %18
w: |the teares for|grief burts|out,|we hanged our|harpes|and in- stru-|ments,|
 D4 A,2 C2 | D4 C4 | D4 z4 | D4 D2 D2 |[M:2/4] F4 |[M:2/2] F2 F4 F2 | F4 z4 | F4 E2 F2 | D4 E4 | %27
w: the wil- low|trees up-|on,|for in that|place|men for their|use,|had plan- ted|a- ny|
 C8 |] %28
w: one.|
V:3
 A4 G2 F2 | E4 D4 | F4 G4 | A4 z4 | A4 c2 c2 | B4 c4 | c4 z4 | c4 c2 A2 | A4 F4 | F2 F2 F4 | %10
w: When as we|sat in|Ba- by-|lon,|the ry- vers|round a-|bout,|and we re-|mem- brance|of Si- on,|
[M:2/4] z4 |[M:2/2] F2 A4 c2 | c4 c4 | A4 z4 | D2 A4 c2 |[M:2/4] c4 |[M:2/2] d2 B4 B2 | d4 z4 | %18
w: |the tears for|grief burst|out,|we hanged our|harpes|and in- stru-|ments,|
 A4 F2 A2 | A4 G4 | A4 z4 | A4 d2 B2 |[M:2/4] A4 |[M:2/2] A2 B4 B2 | A4 z4 | c4 c2 c2 | B4 c4 | %27
w: the wil- low|trees up-|on,|for in that|place|men for their|use,|had plan- ted|a- ny|
 A8 |] %28
w: one.|
V:4
 F,4 C,2 D,2 | A,,4 D,4 | D,4 G,,4 | D,4 z4 | D,4 C,2 F,2 | G,4 C,4 | F,4 z4 | F,4 C,2 D,2 | %8
w: When as we|sat in|Ba- by-|lon,|the ry- vers|round a-|bout,|and we re-|
 A,,4 D,4 | B,,2 B,,2 F,,4 |[M:2/4] z4 |[M:2/2] F,2 D,4 C,2 | F,4 C,4 | A,,4 z4 | F,2 D,4 C,2 | %15
w: mem- brance|of Si- on,||the tears for|grief burst|out,|we hanged our|
[M:2/4] F,4 |[M:2/2] B,2 G,4 G,2 | D,4 z4 | D,4 D,2 A,,2 | D,4 E,4 | D,4 z4 | D,4 D,2 G,2 | %22
w: harpes|and in- stru-|ments,|the wil- low|trees up-|on,|for in that|
[M:2/4] F,4 |[M:2/2] F,2 B,,4 B,,2 | F,4 z4 | F,4 C,2 F,2 | G,4 C,4 | F,,8 |] %28
w: place|men for their|use,|had plan- ted|a- ny|one.|

